X:6
T:Engelska efter Abraham Jacobsson
N:From the playing of Abraham Jacobsson, Bohusl=E4n county.
M:2/4
R:Engelska
S:jonas_liljestrom <consolamentum@spray.se> tradtunes 2005-6-15
K:G
D2|:B2BA GFGB|AGFE D2c2|BdBG AcAF|G2g2 gedc|BcBA GFGB|AGFE D2c2|BdBG
AcAF|G2G2 G2D2:||:G2Bc d2g2|fgag e2cc|c2ef g2g2|fgag fed2|gfga
gfed|cBcd e2c2|BdBG AcAF|[1G2G2 G2D2:|[2G2G2 G2z2||
